public/img/tw.svg

<svg width="25" height="24" viewBox="0 0 25 24" fill="none" xmlns="http://www.w3.org/2000/svg">
<g clip-path="url(#clip0)">
<path d="M9.45364 21.8455C8.4158 21.8455 7.34757 21.7615 6.27293 21.593C4.38017 21.296 2.46416 20.306 1.92199 20.0095L0.5 19.2321L2.03954 18.7258C3.72246 18.1725 4.7462 17.8291 6.01347 17.2915C4.74455 16.677 3.76659 15.5716 3.29583 14.1427L2.93767 13.0554L3.23137 13.1003C2.95287 12.8196 2.73296 12.5347 2.56249 12.2756C1.95623 11.3547 1.63525 10.2296 1.70355 9.26533L1.77093 8.31629L2.3391 8.53639C2.09942 8.08375 1.9262 7.60035 1.8244 7.0937C1.57629 5.85811 1.78393 4.54543 2.40923 3.39755L2.90417 2.48899L3.56609 3.28403C5.65953 5.79879 8.31107 7.29054 11.4581 7.72725C11.3295 6.8412 11.4259 5.9861 11.7446 5.21963C12.1158 4.32717 12.7761 3.5704 13.6535 3.03098C14.628 2.43204 15.8098 2.14182 16.9811 2.21378C18.2238 2.29013 19.3521 2.75577 20.2482 3.56125C20.6858 3.44754 21.0083 3.32614 21.4441 3.16208C21.7063 3.06339 22.0036 2.95132 22.3757 2.82315L23.7468 2.35074L22.8527 4.90432C22.9117 4.89938 22.9724 4.89516 23.036 4.89242L24.5001 4.82613L23.6347 6.00881C23.5851 6.07656 23.5725 6.09578 23.5549 6.12233C23.4851 6.22744 23.3983 6.35817 22.2105 7.94423C21.9132 8.34138 21.7647 8.85865 21.7923 9.40101C21.8976 11.462 21.6448 13.3268 21.0403 14.9432C20.4687 16.4725 19.5828 17.7846 18.4076 18.8432C16.9534 20.1527 15.0991 21.0494 12.896 21.5079C11.8153 21.7327 10.6548 21.8455 9.45364 21.8455Z" fill="#333333"/>
</g>
<defs>
<clipPath id="clip0">
<rect x="0.5" y="-0.000244141" width="24" height="23.9999" fill="white"/>
</clipPath>
</defs>
</svg>

<svg width="25" height="24" fill="none" xmlns="http://www.w3.org/2000/svg"><g clip-path="url(#clip0)"><path d="M9.454 21.846c-1.038 0-2.106-.084-3.181-.253-1.893-.297-3.809-1.287-4.351-1.584L.5 19.232l1.54-.506c1.682-.553 2.706-.897 3.973-1.434-1.268-.615-2.246-1.72-2.717-3.15l-.358-1.087.293.045a5.34 5.34 0 01-.669-.824c-.606-.921-.927-2.046-.858-3.01l.067-.95.568.22a5.312 5.312 0 01-.515-1.442c-.248-1.236-.04-2.549.585-3.696l.495-.909.662.795c2.094 2.515 4.745 4.007 7.892 4.443-.129-.886-.032-1.74.287-2.507.37-.893 1.031-1.65 1.909-2.189a5.734 5.734 0 013.327-.817c1.243.076 2.371.542 3.267 1.347.438-.113.76-.235 1.196-.399.262-.099.56-.21.932-.339l1.37-.472-.893 2.553c.059-.005.12-.009.183-.012l1.464-.066-.865 1.183c-.05.068-.063.087-.08.113-.07.105-.157.236-1.345 1.822a2.238 2.238 0 00-.418 1.457c.106 2.061-.147 3.926-.752 5.542a9.807 9.807 0 01-2.632 3.9c-1.455 1.31-3.309 2.206-5.512 2.665a16.95 16.95 0 01-3.442.338z" fill="#333"/></g><defs><clipPath id="clip0"><path fill="#fff" d="M.5 0h24v24H.5z"/></clipPath></defs></svg>
